svg/badge.svg

<svg xmlns="http://www.w3.org/2000/svg" width="8" height="8" viewBox="0 0 8 8">
  <path d="M2 0c-1.1 0-2 .9-2 2s.9 2 2 2 2-.9 2-2-.9-2-2-2zm-1 4.81v3.19l1-1 1 1v-3.19c-.31.11-.65.19-1 .19s-.69-.08-1-.19z" transform="translate(2)" />
</svg>

<?xml version="1.0" encoding="UTF-8" standalone="no"?>
<svg
   width="8"
   height="8"
   viewBox="0 0 8 8"
   version="1.1"
   id="svg1"
   sodipodi:docname="badge.svg"
   inkscape:version="1.3 (0e150ed6c4, 2023-07-21)"
   xmlns:inkscape="http://www.inkscape.org/namespaces/inkscape"
   xmlns:sodipodi="http://sodipodi.sourceforge.net/DTD/sodipodi-0.dtd"
   xmlns="http://www.w3.org/2000/svg"
   xmlns:svg="http://www.w3.org/2000/svg">
  <defs
     id="defs1" />
  <sodipodi:namedview
     id="namedview1"
     pagecolor="#505050"
     bordercolor="#eeeeee"
     borderopacity="1"
     inkscape:showpageshadow="0"
     inkscape:pageopacity="0"
     inkscape:pagecheckerboard="0"
     inkscape:deskcolor="#505050"
     inkscape:zoom="82"
     inkscape:cx="4"
     inkscape:cy="3.9939024"
     inkscape:window-width="1254"
     inkscape:window-height="1041"
     inkscape:window-x="1297"
     inkscape:window-y="0"
     inkscape:window-maximized="0"
     inkscape:current-layer="svg1" />
  <rect
     style="fill:#ff1161;fill-rule:evenodd;stroke:#f6e04e;stroke-width:0;stroke-dasharray:none;stroke-opacity:0"
     id="rect2"
     width="7.9999881"
     height="7.9999971"
     x="5.9604645e-06"
     y="1.4305115e-06" />
  <path
     d="M 1,4.81 V 8 L 2,7 3,8 V 4.81 C 2.69,4.92 2.35,5 2,5 1.65,5 1.31,4.92 1,4.81 Z"
     transform="translate(2)"
     id="path2"
     style="fill:#f6e04e" />
  <path
     d="M 2,0 C 0.9,0 0,0.9 0,2 0,3.1 0.9,4 2,4 3.1,4 4,3.1 4,2 4,0.9 3.1,0 2,0 Z"
     transform="translate(2)"
     id="path1"
     style="fill:#11a1ff" />
</svg>
